packages/kaspersky-hexa-ui-icons/src/iconsSVGs/24/ShieldCracked.svg

<svg width="24" height="24" viewBox="0 0 24 24" fill="none" xmlns="http://www.w3.org/2000/svg">
<path fill-rule="evenodd" clip-rule="evenodd" d="M12.9425 2.3516C12.3648 2.05174 11.6774 2.05174 11.0997 2.3516L4.53929 5.75693C4.20795 5.92892 4 6.27116 4 6.64448V11.8567C4 12.8253 4.10685 13.8696 4.49525 14.8687C5.61429 17.7471 7.40804 19.5202 8.93197 20.5711C9.69148 21.0949 10.3833 21.4391 10.8919 21.6543C11.1465 21.7621 11.3562 21.8379 11.507 21.8881C11.5463 21.9011 11.5817 21.9125 11.6128 21.9222C11.6669 21.9448 11.7238 21.963 11.7831 21.9762C11.8631 21.994 11.9431 22.0016 12.0216 22C12.1187 22 12.2157 21.9858 12.3096 21.9575L12.3078 21.9516C12.3076 21.9517 12.308 21.9516 12.3078 21.9516C12.3096 21.9575 12.3095 21.9575 12.3096 21.9575L12.3115 21.9569L12.3138 21.9562L12.3197 21.9544L12.3364 21.9492C12.3497 21.9449 12.3673 21.9393 12.3888 21.9321C12.432 21.9176 12.4914 21.8971 12.5652 21.8697C12.7129 21.815 12.9189 21.7331 13.1694 21.6189C13.6698 21.3908 14.3517 21.0322 15.1016 20.5022C16.6035 19.4407 18.3866 17.6846 19.5121 14.9175C19.9295 13.8914 20.0422 12.812 20.0422 11.8148V6.64448C20.0422 6.27116 19.8342 5.92892 19.5029 5.75693L12.9425 2.3516ZM13.4204 19.2181C13.5893 19.1134 13.7657 18.9973 13.9473 18.869C15.2084 17.9777 16.7076 16.5042 17.6595 14.1639C17.9422 13.4689 18.0422 12.6757 18.0422 11.8148V7.2521L13.232 4.75525L11.7626 11H14C14.3033 11 14.5902 11.1377 14.78 11.3743C14.9698 11.6109 15.042 11.9208 14.9762 12.2169L13.4204 19.2181ZM11.2284 4.53816L6 7.2521V11.8567C6 12.6911 6.09439 13.4625 6.35934 14.144C7.30826 16.5848 8.81141 18.0585 10.0674 18.9246C10.5145 19.233 10.9306 19.4644 11.2792 19.634L12.7534 13H10.5C10.1945 13 9.90576 12.8604 9.71609 12.6209C9.52641 12.3814 9.45661 12.0684 9.52658 11.771L11.2284 4.53816Z" fill="black"/>
</svg>

<svg xmlns="http://www.w3.org/2000/svg" width="24" height="24" fill="none" viewBox="0 0 24 24"><path fill="#000" fill-rule="evenodd" d="M12.9425 2.3516a2 2 0 0 0-1.8428 0L4.5393 5.7569A1 1 0 0 0 4 6.6445v5.2122c0 .9686.1068 2.0129.4953 3.012 1.119 2.8784 2.9127 4.6515 4.4367 5.7024.7595.5238 1.4513.868 1.9599 1.0832.2546.1078.4643.1836.6151.2338q.059.0195.1058.0341a1.01 1.01 0 0 0 .4088.0778 1 1 0 0 0 .288-.0425l-.0018-.0059.0018.0059.0019-.0006.0023-.0007.0059-.0018.0167-.0052q.02-.0064.0524-.0171a6 6 0 0 0 .1764-.0624 9 9 0 0 0 .6042-.2508c.5004-.2281 1.1823-.5867 1.9322-1.1167 1.5019-1.0615 3.285-2.8176 4.4105-5.5847.4174-1.0261.5301-2.1055.5301-3.1027V6.6445a1 1 0 0 0-.5393-.8876zm.4779 16.8665c.1689-.1047.3453-.2208.5269-.3491 1.2611-.8913 2.7603-2.3648 3.7122-4.7051.2827-.695.3827-1.4882.3827-2.3491V7.2521L13.232 4.7552 11.7626 11H14a1 1 0 0 1 .9762 1.2169zm-2.192-14.68L6 7.2522v4.6046c0 .8344.0944 1.6058.3593 2.2873.949 2.4408 2.4521 3.9145 3.7081 4.7806a9.34 9.34 0 0 0 1.2118.7094L12.7534 13H10.5a1 1 0 0 1-.9734-1.229z"/></svg>
